app/assets/images/Astronaut.svg

<svg width="60" height="113" viewBox="0 0 60 113" version="1.1" xmlns="http://www.w3.org/2000/svg" xmlns:xlink="http://www.w3.org/1999/xlink">
<title>Astronaut</title>
<desc>Created using Figma</desc>
<g id="Canvas" transform="translate(473 2812)">
<g id="Astronaut">
<g id="Vector 2">
<use xlink:href="#path0_fill" transform="translate(-459 -2789.97)" fill="#FFFFFF"/>
</g>
<g id="Vector">
<use xlink:href="#path1_fill" transform="translate(-459 -2790)" fill="#828282"/>
</g>
<g id="Vector">
<use xlink:href="#path2_fill" transform="translate(-454.5 -2788.38)" fill="#C4C4C4"/>
</g>
<g id="Vector">
<use xlink:href="#path3_fill" transform="translate(-450 -2778.5)" fill="#C4C4C4"/>
<use xlink:href="#path4_stroke" transform="translate(-450 -2778.5)"/>
</g>
<g id="Vector">
<use xlink:href="#path5_fill" transform="translate(-457.5 -2705)" fill="#474747"/>
</g>
<g id="Vector">
<use xlink:href="#path5_fill" transform="translate(-441 -2705)" fill="#474747"/>
</g>
<g id="Vector">
<use xlink:href="#path6_fill" transform="translate(-437 -2785)" fill="#E0561B"/>
</g>
<g id="Vector">
<use xlink:href="#path7_fill" transform="matrix(-1 0 0 1 -447 -2785)" fill="#E0561B"/>
</g>
<g id="Group">
<g id="Vector 2.2">
<use xlink:href="#path8_fill" transform="translate(-473 -2785)" fill="#EDEDED"/>
</g>
<g id="Vector">
<use xlink:href="#path9_fill" transform="translate(-461.5 -2753.55)" fill="#C4C4C4"/>
</g>
</g>
<g id="Group">
<g id="Vector 2.2">
<use xlink:href="#path10_fill" transform="matrix(-1 0 0 1 -413 -2785)" fill="#EDEDED"/>
</g>
<g id="Vector">
<use xlink:href="#path11_fill" transform="matrix(-1 0 0 1 -424.5 -2753.55)" fill="#C4C4C4"/>
</g>
</g>
<g id="Vector">
<use xlink:href="#path12_fill" transform="translate(-455.013 -2811)" fill="#FFFFFF"/>
<use xlink:href="#path13_stroke" transform="translate(-455.013 -2811)"/>
</g>
<g id="Ellipse">
<use xlink:href="#path14_fill" transform="translate(-451.628 -2808.47)" fill="#313131"/>
</g>
</g>
</g>
<defs>
<path id="path0_fill" d="M 1.5 59L 0 0L 32 0L 32 90L 24 90L 18 90L 18.5 69.5L 18 52.5L 15 52.5L 14 69.5L 15 90L 7 90L 1.5 90L 1.5 59Z"/>
<path id="path1_fill" d="M 0 5L 0 0L 32 0L 32 5L 0 5Z"/>
<path id="path2_fill" d="M 8 0.883443C 6 2.48344 1.83333 3.21678 0 3.38344C 9 3.55014 26.4 3.78352 24 3.38344C 21.6 2.98336 19 1.55008 18 0.883443C 15.5 0.216776 10 -0.716557 8 0.883443Z"/>
<path id="path3_fill" d="M 0 10.5L 0 0L 16 0L 16 10.5L 0 10.5Z"/>
<path id="path4_stroke" d="M 0 0L 0 -0.15L -0.15 -0.15L -0.15 0L 0 0ZM 0 10.5L -0.15 10.5L -0.15 10.65L 0 10.65L 0 10.5ZM 16 10.5L 16 10.65L 16.15 10.65L 16.15 10.5L 16 10.5ZM 16 0L 16.15 0L 16.15 -0.15L 16 -0.15L 16 0ZM -0.15 0L -0.15 10.5L 0.15 10.5L 0.15 0L -0.15 0ZM 0 10.65L 16 10.65L 16 10.35L 0 10.35L 0 10.65ZM 16.15 10.5L 16.15 0L 15.85 0L 15.85 10.5L 16.15 10.5ZM 16 -0.15L 0 -0.15L 0 0.15L 16 0.15L 16 -0.15Z"/>
<path id="path5_fill" d="M 13.5 5.00204L 0 5.00204C 0 5.00204 3.64269 -0.117009 7 0.00204488C 10.2005 0.115539 13.5 5.00204 13.5 5.00204Z"/>
<path id="path6_fill" d="M 10 35.6509L 10 0C -2 47 2 36.5 0 43.5L 10 35.6509Z"/>
<path id="path7_fill" d="M 11 37L 12 0C -2.4 46.4598 2.4 36.0805 0 43L 11 37Z"/>
<path id="path8_fill" d="M 0.177425 18.1787C -1.71847 2.95702 12.062 -0.305526 18.5137 0.0216269L 18.5137 13.2714L 11.3829 13.7621L 11.3829 22.5954L 17.495 28.9747C 17.495 28.9747 18.5398 29.952 20 31.4703L 11.4478 38C 11.2187 37.7347 11.0248 37.5043 10.8736 37.3171C 7.3082 32.9005 1.70547 30.447 0.177425 18.1787Z"/>
<path id="path9_fill" d="M 8.5 0L 0 6.48956C 1.76907 8.2558 4 10.9823 5.5 12.4799C 8 14.5505 11 16.5505 14.5 12.4799C 16.8125 9.7904 11.5 3.99358 8.5 0Z"/>
<path id="path10_fill" d="M 0.177425 18.1787C -1.71847 2.95702 12.062 -0.305526 18.5137 0.0216269L 18.5137 13.2714L 11.3829 13.7621L 11.3829 22.5954L 17.495 28.9747C 17.495 28.9747 18.5398 29.952 20 31.4703L 11.5 38.0604C 11.2481 37.7696 11.0361 37.5184 10.8736 37.3171C 7.3082 32.9005 1.70547 30.447 0.177425 18.1787Z"/>
<path id="path11_fill" d="M 8.5 0L 0 6.48956C 1.76907 8.2558 3 9.55295 4.5 11.0505C 8.5 13.5505 8.79979 16.2117 13 11.0505C 14.6276 9.05054 11.5 3.99358 8.5 0Z"/>
<path id="path12_fill" d="M 0.0130428 12.0346C -0.386957 1.63461 8.51304 -0.298722 13.013 0.0346109C 17.3464 -0.298703 26.013 1.63466 26.013 12.0346C 26.013 15.3625 25.1256 17.7894 23.7767 19.5347C 20.9102 23.2436 15.9597 23.8746 13.013 23.5347C 8.84638 24.0346 0.413043 22.4346 0.0130428 12.0346Z"/>
<path id="path13_stroke" d="M 13.013 0.0346109L 12.9761 0.533245L 13.0138 0.536033L 13.0514 0.533138L 13.013 0.0346109ZM 13.013 23.5347L 13.0704 23.038L 13.0119 23.0312L 12.9535 23.0382L 13.013 23.5347ZM 23.7767 19.5347L 24.1723 19.8404L 24.1723 19.8404L 23.7767 19.5347ZM 13.05 -0.464023C 10.7269 -0.636101 7.26079 -0.227809 4.40715 1.58775C 1.51635 3.42695 -0.693271 6.68006 -0.486588 12.0538L 0.512673 12.0154C 0.319357 6.98916 2.35974 4.0756 4.94394 2.43147C 7.56529 0.763697 10.7992 0.371989 12.9761 0.533245L 13.05 -0.464023ZM -0.486588 12.0538C -0.280554 17.4107 2.00923 20.5687 4.83979 22.2988C 7.63818 24.0091 10.9083 24.2908 13.0726 24.0311L 12.9535 23.0382C 10.9511 23.2785 7.92124 23.0101 5.3613 21.4455C 2.83352 19.9005 0.70664 17.0585 0.512673 12.0154L -0.486588 12.0538ZM 26.513 12.0346C 26.513 6.66965 24.2641 3.4255 21.4085 1.58909C 18.5854 -0.226354 15.2191 -0.636556 12.9747 -0.463916L 13.0514 0.533138C 15.1403 0.372463 18.274 0.762285 20.8676 2.43018C 23.4286 4.07711 25.513 6.99962 25.513 12.0346L 26.513 12.0346ZM 12.9557 24.0314C 15.9826 24.3806 21.1514 23.7491 24.1723 19.8404L 23.3811 19.2289C 20.669 22.738 15.9368 23.3687 13.0704 23.038L 12.9557 24.0314ZM 24.1723 19.8404C 25.5989 17.9946 26.513 15.4556 26.513 12.0346L 25.513 12.0346C 25.513 15.2695 24.6523 17.5841 23.3811 19.2289L 24.1723 19.8404Z"/>
<path id="path14_fill" d="M 18.1282 14.9653C 18.1282 14.9653 15.7034 17.4653 9.62823 17.4653C 3.5531 17.4653 0.128234 14.9653 0.128234 14.9653C 0.128234 11.8317 -0.650079 7.10298 1.62825 3.80225C 3.16462 1.57644 7.18147 0 9.62823 0C 12.075 0 15.2856 1.57644 16.6282 3.80225C 18.6192 7.10298 18.1282 11.8317 18.1282 14.9653Z"/>
</defs>
</svg>

<svg width="60" height="113" xmlns="http://www.w3.org/2000/svg" xmlns:xlink="http://www.w3.org/1999/xlink"><use xlink:href="#path0_fill" transform="translate(14 22.03)" fill="#FFF"/><use xlink:href="#path1_fill" transform="translate(14 22)" fill="#828282"/><use xlink:href="#path2_fill" transform="translate(18.5 23.62)" fill="#C4C4C4"/><g transform="translate(23 33.5)"><use xlink:href="#path3_fill" fill="#C4C4C4"/><use xlink:href="#path4_stroke"/></g><use xlink:href="#path5_fill" transform="translate(15.5 107)" fill="#474747"/><use xlink:href="#path5_fill" transform="translate(32 107)" fill="#474747"/><use xlink:href="#path6_fill" transform="translate(36 27)" fill="#E0561B"/><use xlink:href="#path7_fill" transform="matrix(-1 0 0 1 26 27)" fill="#E0561B"/><use xlink:href="#path8_fill" transform="translate(0 27)" fill="#EDEDED"/><use xlink:href="#path9_fill" transform="translate(11.5 58.45)" fill="#C4C4C4"/><use xlink:href="#path10_fill" transform="matrix(-1 0 0 1 60 27)" fill="#EDEDED"/><use xlink:href="#path11_fill" transform="matrix(-1 0 0 1 48.5 58.45)" fill="#C4C4C4"/><g transform="translate(17.987 1)"><use xlink:href="#path12_fill" fill="#FFF"/><use xlink:href="#path13_stroke"/></g><use xlink:href="#path14_fill" transform="translate(21.372 3.53)" fill="#313131"/><defs><path id="path0_fill" d="M1.5 59L0 0h32v90H18l.5-20.5-.5-17h-3l-1 17L15 90H1.5V59z"/><path id="path1_fill" d="M0 5V0h32v5H0z"/><path id="path2_fill" d="M8 .883c-2 1.6-6.167 2.334-8 2.5 9 .167 26.4.4 24 0-2.4-.4-5-1.833-6-2.5-2.5-.666-8-1.6-10 0z"/><path id="path3_fill" d="M0 10.5V0h16v10.5H0z"/><path id="path4_stroke" d="M0 0v-.15h-.15V0H0zm0 10.5h-.15v.15H0v-.15zm16 0v.15h.15v-.15H16zM16 0h.15v-.15H16V0zM-.15 0v10.5h.3V0h-.3zM0 10.65h16v-.3H0v.3zm16.15-.15V0h-.3v10.5h.3zM16-.15H0v.3h16v-.3z"/><path id="path5_fill" d="M13.5 5.002H0s3.643-5.119 7-5c3.2.114 6.5 5 6.5 5z"/><path id="path6_fill" d="M10 35.65V0C-2 47 2 36.5 0 43.5l10-7.85z"/><path id="path7_fill" d="M11 37l1-37C-2.4 46.46 2.4 36.08 0 43l11-6z"/><path id="path8_fill" d="M.177 18.179C-1.718 2.957 12.062-.306 18.514.022v13.25l-7.131.49v8.833l6.112 6.38s1.045.977 2.505 2.495L11.448 38c-.23-.265-.423-.496-.574-.683C7.308 32.901 1.705 30.447.177 18.18z"/><path id="path9_fill" d="M8.5 0L0 6.49c1.77 1.766 4 4.492 5.5 5.99 2.5 2.07 5.5 4.07 9 0 2.313-2.69-3-8.486-6-12.48z"/><path id="path10_fill" d="M.177 18.179C-1.718 2.957 12.062-.306 18.514.022v13.25l-7.131.49v8.833l6.112 6.38s1.045.977 2.505 2.495l-8.5 6.59c-.252-.29-.464-.542-.626-.743C7.308 32.901 1.705 30.447.177 18.18z"/><path id="path11_fill" d="M8.5 0L0 6.49c1.77 1.766 3 3.063 4.5 4.56 4 2.5 4.3 5.162 8.5 0 1.628-2-1.5-7.056-4.5-11.05z"/><path id="path12_fill" d="M.013 12.035c-.4-10.4 8.5-12.334 13-12 4.333-.334 13 1.6 13 12 0 3.328-.887 5.754-2.236 7.5-2.867 3.709-7.817 4.34-10.764 4-4.167.5-12.6-1.1-13-11.5z"/><path id="path13_stroke" d="M13.013.035l-.037.498.038.003.037-.003-.038-.498zm0 23.5l.057-.497-.058-.007-.059.007.06.497zm10.764-4l.395.305-.395-.305zM13.05-.464c-2.323-.172-5.79.236-8.643 2.052-2.89 1.839-5.1 5.092-4.894 10.466l1-.039C.319 6.99 2.36 4.075 4.943 2.431 7.566.764 10.8.372 12.977.533l.074-.997zM-.487 12.054C-.28 17.41 2.01 20.569 4.84 22.299c2.798 1.71 6.068 1.992 8.233 1.732l-.12-.993c-2.002.24-5.032-.028-7.592-1.593-2.527-1.544-4.654-4.387-4.848-9.43l-1 .039zm27-.02c0-5.364-2.249-8.609-5.105-10.445C18.585-.226 15.22-.637 12.976-.464l.076.997c2.09-.16 5.223.23 7.817 1.897 2.56 1.647 4.645 4.57 4.645 9.605h1zM12.956 24.032c3.027.35 8.195-.282 11.216-4.19l-.79-.612c-2.713 3.509-7.445 4.14-10.312 3.809l-.114.993zm11.216-4.19c1.427-1.846 2.341-4.385 2.341-7.806h-1c0 3.235-.86 5.55-2.132 7.194l.791.611z"/><path id="path14_fill" d="M18.128 14.965s-2.425 2.5-8.5 2.5-9.5-2.5-9.5-2.5c0-3.133-.778-7.862 1.5-11.163C3.165 1.576 7.181 0 9.628 0s5.658 1.576 7 3.802c1.991 3.301 1.5 8.03 1.5 11.163z"/></defs></svg>
